**harmony	**harte	**kern	**silbe	**rhyme	**timestamp	**phrase
*M3/4	*M3/4	*ICvox	*	*	*	*
*	*	*VRlead	*	*	*	*
*	*	*Hstimme	*	*	*	*
*D:	*D:	*D:	*	*	*	*
*	*	*M3/4	*	*	*	*
*	*	*clefF4	*	*	*	*
1r;	1r	r;	.	.	0	.
=1	=1	=1	=1	=1	=1	=1
*>Letter>C	*>Letter>C	*>Letter>C	*>Letter>C	*>Letter>C	*>Letter>C	*>Letter>C
*>Label>Intro	*>Label>Intro	*>Label>Intro	*>Label>Intro	*>Label>Intro	*>Label>Intro	*>Label>Intro
2.DM	D:maj	2.r	.	.	0.302	newline
=2	=2	=2	=2	=2	=2	=2
2.DM	D:maj/7	2.r	.	.	1.432	.
=3	=3	=3	=3	=3	=3	=3
2.DM	D:maj/6	2.r	.	.	2.561	.
=4	=4	=4	=4	=4	=4	=4
2.DM	D:maj/5	4r	.	.	3.691	.
.	.	4r	.	.	.	.
.	.	8r	.	.	.	.
.	.	8AA	I	.	.	.
=5	=5	=5	=5	=5	=5	=5
*>Letter>A	*>Letter>A	*>Letter>A	*>Letter>A	*>Letter>A	*>Letter>A	*>Letter>A
*>Label>Verse	*>Label>Verse	*>Label>Verse	*>Label>Verse	*>Label>Verse	*>Label>Verse	*>Label>Verse
2.DM	D:maj	8F#	knew	.	9.208	newline
.	.	8E	a	.	.	.
.	.	4F#	man,	.	.	.
.	.	8E	Bo-	.	.	.
.	.	[8F#	-jan	.	.	.
=6	=6	=6	=6	=6	=6	=6
2.DM	D:maj/7	8F#]	_	.	10.311	.
.	.	8E	gles	.	.	.
.	.	4F#	and	.	.	.
.	.	8E	he	.	.	.
.	.	[8F#	danced	.	.	.
=7	=7	=7	=7	=7	=7	=7
2.DM	D:maj/6	4F#]	_	.	11.414	.
.	.	8E	for	.	.	.
.	.	[8D	you	A	.	.
.	.	4D]	.	.	.	.
=8	=8	=8	=8	=8	=8	=8
2.DM	D:maj/5	2.r	.	.	12.516	.
=9	=9	=9	=9	=9	=9	=9
2.GM	G:maj	4r	.	.	13.619	newline
.	.	4r	.	.	.	.
.	.	8r	.	.	.	.
.	.	8~GG	in	.	.	.
=10	=10	=10	=10	=10	=10	=10
2.GM	G:maj	4B	worn-	.	14.744	.
.	.	2A	-out	.	.	.
=11	=11	=11	=11	=11	=11	=11
2.AM	A:maj	2.A	shoes	A	15.869	.
=12	=12	=12	=12	=12	=12	=12
2.AM	A:maj	4r	.	.	16.994	.
.	.	4r	.	.	.	.
.	.	8r	.	.	.	.
.	.	8AA	The	.	.	.
=13	=13	=13	=13	=13	=13	=13
2.DM	D:maj	8F#	sil-	.	18.119	newline
.	.	8E	-ver	.	.	.
.	.	4F#	hair,	.	.	.
.	.	8E	a	.	.	.
.	.	[8F#	rag	(B	.	.
=14	=14	=14	=14	=14	=14	=14
2.DM	D:maj/7	8F#]	_	.	19.202	.
.	.	8E	ged	b)	.	.
.	.	4F#	shirt	.	.	.
.	.	8E	and	.	.	.
.	.	[8F#	bag	(B	.	.
=15	=15	=15	=15	=15	=15	=15
2.DM	D:maj/6	8F#]	_	.	20.286	.
.	.	8E	gy	b)	.	.
.	.	2D	pants,	C	.	.
=16	=16	=16	=16	=16	=16	=16
2.DM	D:maj/5	2.r	.	.	21.37	.
=17	=17	=17	=17	=17	=17	=17
2.GM	G:maj	4r	.	.	22.453	newline
.	.	4r	.	.	.	.
.	.	8r	.	.	.	.
.	.	8~GG	the	.	.	.
=18	=18	=18	=18	=18	=18	=18
2.GM	G:maj	2B	old	.	23.553	.
.	.	4A	soft	.	.	.
=19	=19	=19	=19	=19	=19	=19
2.AM	A:maj	2.A	shoe.	A	24.653	.
=20	=20	=20	=20	=20	=20	=20
2.AM	A:maj	2.r	.	.	25.752	.
=21	=21	=21	=21	=21	=21	=21
2.GM	G:maj	4r	.	.	26.852	newline
.	.	4r	.	.	.	.
.	.	8r	.	.	.	.
.	.	8GG	He	.	.	.
=22	=22	=22	=22	=22	=22	=22
2.GM	G:maj	4B	jumped	.	27.949	.
.	.	8Bq	_	.	.	.
.	.	2c#	so	.	.	.
=23	=23	=23	=23	=23	=23	=23
2.DM	D:maj	[2.A	high,	.	29.046	.
=24	=24	=24	=24	=24	=24	=24
2.F#M	F#:maj	4A]	_	.	30.143	.
.	.	4F#	jumped	.	.	.
.	.	8E	so	.	.	.
.	.	[8D	high,	.	.	.
=25	=25	=25	=25	=25	=25	=25
2.Bm	B:min	2.D]	_	.	31.24	newline
=26	=26	=26	=26	=26	=26	=26
2.Bm	B:min/b7	2.r	.	.	32.335	.
=27	=27	=27	=27	=27	=27	=27
2.EMm	E:9/3	4r	.	.	33.43	.
.	.	4r	.	.	.	.
.	.	8F#	then	.	.	.
.	.	8F#	he'd	.	.	.
=28	=28	=28	=28	=28	=28	=28
2.EMm	E:9	4F#	light-	.	34.525	.
.	.	8E	-ly	.	.	.
.	.	8D	touch	.	.	.
.	.	8r	.	.	.	.
.	.	[8E	down	.	.	.
=29	=29	=29	=29	=29	=29	=29
2.AM	A:maj	2.E]	.	.	35.62	newline
=30	=30	=30	=30	=30	=30	=30
2.AM	A:maj	2.r	.	.	36.683	.
=31	=31	=31	=31	=31	=31	=31
2.AM	A:maj	2.r	.	.	37.746	.
=32	=32	=32	=32	=32	=32	=32
2.AM	A:maj	2.r	.	.	38.809	.
=33	=33	=33	=33	=33	=33	=33
*>Letter>B	*>Letter>B	*>Letter>B	*>Letter>B	*>Letter>B	*>Letter>B	*>Letter>B
*>Label>Chorus	*>Label>Chorus	*>Label>Chorus	*>Label>Chorus	*>Label>Chorus	*>Label>Chorus	*>Label>Chorus
2.Bm	B:min	2.r	.	.	39.872	newline
=34	=34	=34	=34	=34	=34	=34
2.Bm	B:min	8B	Mis-	.	40.966	.
.	.	8~A	-ter	.	.	.
.	.	8Bq	_	.	.	.
.	.	2c#	Bo-	.	.	.
=35	=35	=35	=35	=35	=35	=35
2.AM	A:maj	8A	-jan	.	42.06	.
.	.	8F#	_	.	.	.
.	.	[2E	gles	.	.	.
=36	=36	=36	=36	=36	=36	=36
2.AM	A:maj	4E]	.	.	43.153	.
.	.	4r	.	.	.	.
.	.	4r	.	.	.	.
=37	=37	=37	=37	=37	=37	=37
2.Bm	B:min	2.r	.	.	44.247	newline
=38	=38	=38	=38	=38	=38	=38
2.Bm	B:min	8B	Mis-	.	45.321	.
.	.	8~A	-ter	.	.	.
.	.	8Bq	_	.	.	.
.	.	2c#	Bo-	.	.	.
=39	=39	=39	=39	=39	=39	=39
2.AM	A:maj	8A	-jan	.	46.395	.
.	.	8F#	_	.	.	.
.	.	[2E	gles	.	.	.
=40	=40	=40	=40	=40	=40	=40
2.AM	A:maj	4E]	.	.	47.469	.
.	.	4r	.	.	.	.
.	.	4r	.	.	.	.
=41	=41	=41	=41	=41	=41	=41
2.Bm	B:min	2.r	.	.	48.542	newline
=42	=42	=42	=42	=42	=42	=42
2.Bm	B:min	8B	Mis-	.	49.624	.
.	.	8~A	-ter	.	.	.
.	.	8Bq	_	.	.	.
.	.	2c#	Bo-	.	.	.
=43	=43	=43	=43	=43	=43	=43
2.AM	A:maj	8A	-jan	.	50.705	.
.	.	8F#	_	.	.	.
.	.	[2E	gles	.	.	.
=44	=44	=44	=44	=44	=44	=44
2.AM	A:maj	4E]	.	.	51.787	.
.	.	4r	.	.	.	.
.	.	4r	.	.	.	.
=45	=45	=45	=45	=45	=45	=45
*>Letter>C	*>Letter>C	*>Letter>C	*>Letter>C	*>Letter>C	*>Letter>C	*>Letter>C
*>Label>Trans	*>Label>Trans	*>Label>Trans	*>Label>Trans	*>Label>Trans	*>Label>Trans	*>Label>Trans
2.DM	D:maj	[2.D	dance	C	52.869	newline
=46	=46	=46	=46	=46	=46	=46
2.DM	D:maj/7	4D]	_	.	53.96	.
.	.	4r	.	.	.	.
.	.	4r	.	.	.	.
=47	=47	=47	=47	=47	=47	=47
2.DM	D:maj/6	2.r	.	.	55.051	.
=48	=48	=48	=48	=48	=48	=48
2.DM	D:maj/5	4r	.	.	56.143	.
.	.	4r	.	.	.	.
.	.	8r	.	.	.	.
.	.	8AA	I	.	.	.
=49	=49	=49	=49	=49	=49	=49
*>Letter>A	*>Letter>A	*>Letter>A	*>Letter>A	*>Letter>A	*>Letter>A	*>Letter>A
*>Label>Verse	*>Label>Verse	*>Label>Verse	*>Label>Verse	*>Label>Verse	*>Label>Verse	*>Label>Verse
2.DM	D:maj	8F#	met	.	57.234	newline
.	.	8E	him	.	.	.
.	.	4F#	in	.	.	.
.	.	8E	a	.	.	.
.	.	[8F#	cell	.	.	.
=50	=50	=50	=50	=50	=50	=50
2.DM	D:maj/7	8F#]	_	.	58.33	.
.	.	8E	in	.	.	.
.	.	8F#	New	.	.	.
.	.	[8E	Or-	.	.	.
.	.	8E]	_	.	.	.
.	.	[8F#	-leans,	.	.	.
=51	=51	=51	=51	=51	=51	=51
2.DM	D:maj/6	4F#]	_	.	59.426	.
.	.	8E	I	.	.	.
.	.	[8D	was	.	.	.
.	.	4D]	.	.	.	.
=52	=52	=52	=52	=52	=52	=52
2.DM	D:maj/5	2.r	.	.	60.522	.
=53	=53	=53	=53	=53	=53	=53
2.GM	G:maj	2.r	.	.	61.618	newline
=54	=54	=54	=54	=54	=54	=54
.	.	8Aq	_	.	.	.
2.GM	G:maj	2B	down	.	62.71	.
.	.	8A	and	.	.	.
.	.	[8A	out	.	.	.
=55	=55	=55	=55	=55	=55	=55
2.AM	A:maj	2.A]	_	.	63.802	.
=56	=56	=56	=56	=56	=56	=56
2.AM	A:maj	4r	.	.	64.893	.
.	.	4r	.	.	.	.
.	.	8r	.	.	.	.
.	.	8~C#	He	.	.	.
=57	=57	=57	=57	=57	=57	=57
2.DM	D:maj	8F#	looked	.	65.985	newline
.	.	8E	to	.	.	.
.	.	4F#	me	.	.	.
.	.	8E	to	.	.	.
.	.	[8F#	be	.	.	.
=58	=58	=58	=58	=58	=58	=58
2.DM	D:maj/7	2F#]	_	.	67.088	.
.	.	8E	the	.	.	.
.	.	[8F#	eyes	.	.	.
=59	=59	=59	=59	=59	=59	=59
2.DM	D:maj/6	4F#]	_	.	68.191	.
.	.	8E	of	.	.	.
.	.	[8D	age	.	.	.
.	.	4D]	.	.	.	.
=60	=60	=60	=60	=60	=60	=60
2.DM	D:maj/5	2.r	.	.	69.294	.
=61	=61	=61	=61	=61	=61	=61
2.GM	G:maj	4r	.	.	70.397	newline
.	.	4r	.	.	.	.
.	.	8GG	as	.	.	.
.	.	8~GG	he	.	.	.
=62	=62	=62	=62	=62	=62	=62
2.GM	G:maj	2B	spoke	.	71.489	.
.	.	8A	right	.	.	.
.	.	[8A	out	.	.	.
=63	=63	=63	=63	=63	=63	=63
2.AM	A:maj	2.A]	_	.	72.581	.
=64	=64	=64	=64	=64	=64	=64
2.AM	A:maj	2.r	.	.	73.673	.
=65	=65	=65	=65	=65	=65	=65
2.GM	G:maj	4r	.	.	74.766	newline
.	.	4r	.	.	.	.
.	.	8r	.	.	.	.
.	.	8~C#	He	.	.	.
=66	=66	=66	=66	=66	=66	=66
2.GM	G:maj	4B	talked	.	75.874	.
.	.	8Bq	_	.	.	.
.	.	2c#	of	.	.	.
=67	=67	=67	=67	=67	=67	=67
2.DM	D:maj	[2.A	life,	.	76.982	.
=68	=68	=68	=68	=68	=68	=68
2.F#M	F#:maj	4A]	_	.	78.09	.
.	.	4F#	talked	.	.	.
.	.	8E	of	.	.	.
.	.	[8D	life	.	.	.
=69	=69	=69	=69	=69	=69	=69
2.Bm	B:min	2.D]	.	.	79.198	newline
=70	=70	=70	=70	=70	=70	=70
2.Bm	B:min/b7	2.r	.	.	80.293	.
=71	=71	=71	=71	=71	=71	=71
2.EMm	E:9/3	4r	.	.	81.389	.
.	.	4r	.	.	.	.
.	.	8r	.	.	.	.
.	.	8~C#	He	.	.	.
=72	=72	=72	=72	=72	=72	=72
2.EMm	E:9	4F#	laughed,	.	82.484	.
.	.	8F#	slapped	.	.	.
.	.	8E	his	.	.	.
.	.	8E	leg	.	.	.
.	.	8D	in-	.	.	.
=73	=73	=73	=73	=73	=73	=73
2.AM	A:maj	2.E	-stead...	.	83.58	newline
=74	=74	=74	=74	=74	=74	=74
2.AM	A:maj	2.r	.	.	84.646	.
=75	=75	=75	=75	=75	=75	=75
2.AM	A:maj	2.r	.	.	85.712	.
=76	=76	=76	=76	=76	=76	=76
2.AM	A:maj	4r	.	.	86.778	.
.	.	4r	.	.	.	.
.	.	8r	.	.	.	.
.	.	8~AA	he	.	.	.
=77	=77	=77	=77	=77	=77	=77
*>Letter>A	*>Letter>A	*>Letter>A	*>Letter>A	*>Letter>A	*>Letter>A	*>Letter>A
*>Label>Verse	*>Label>Verse	*>Label>Verse	*>Label>Verse	*>Label>Verse	*>Label>Verse	*>Label>Verse
2.DM	D:maj	8F#	said	.	87.845	newline
.	.	8E	the	.	.	.
.	.	4F#	name	.	.	.
.	.	8E	Bo-	.	.	.
.	.	[8F#	-jan	.	.	.
=78	=78	=78	=78	=78	=78	=78
2.DM	D:maj/7	8F#]	_	.	88.965	.
.	.	8E	gles	.	.	.
.	.	4F#	and	.	.	.
.	.	8E	he	.	.	.
.	.	[8F#	danced	.	.	.
=79	=79	=79	=79	=79	=79	=79
2.DM	D:maj/6	4F#]	_	.	90.085	.
.	.	8E	a	.	.	.
.	.	[8D	lick	D	.	.
.	.	8D]	_	.	.	.
.	.	8r	.	.	.	.
=80	=80	=80	=80	=80	=80	=80
2.DM	D:maj/5	2.r	.	.	91.205	.
=81	=81	=81	=81	=81	=81	=81
2.GM	G:maj	2.r	.	.	92.325	newline
=82	=82	=82	=82	=82	=82	=82
2.GM	G:maj	2B	'Cross	.	93.418	.
.	.	8A	the	.	.	.
.	.	[8A	cell	E	.	.
=83	=83	=83	=83	=83	=83	=83
2.AM	A:maj	2.A]	_	.	94.51	.
=84	=84	=84	=84	=84	=84	=84
2.AM	A:maj	4r	.	.	95.603	.
.	.	4r	.	.	.	.
.	.	8r	.	.	.	.
.	.	8~C#	He	.	.	.
=85	=85	=85	=85	=85	=85	=85
2.DM	D:maj	8F#	grabbed	.	96.695	newline
.	.	8E	his	.	.	.
.	.	4F#	pants	.	.	.
.	.	8E	for	.	.	.
.	.	8F#	bet-	.	.	.
=86	=86	=86	=86	=86	=86	=86
2.DM	D:maj/7	8E	-ter	.	97.773	.
.	.	4F#	stance,	C	.	.
.	.	8E	ooh,	.	.	.
.	.	8F#	_	.	.	.
.	.	8E	he	.	.	.
=87	=87	=87	=87	=87	=87	=87
2.DM	D:maj/6	4F#	jumped	.	98.852	.
.	.	8E	so	.	.	.
.	.	[8D	high	.	.	.
.	.	4D]	.	.	.	.
=88	=88	=88	=88	=88	=88	=88
2.DM	D:maj/5	2.r	.	.	99.93	.
=89	=89	=89	=89	=89	=89	=89
2.GM	G:maj	4r	.	.	101.008	newline
.	.	4r	.	.	.	.
.	.	8r	.	.	.	.
.	.	8~GG	he	.	.	.
=90	=90	=90	=90	=90	=90	=90
2.GM	G:maj	4B	clicked	D	102.088	.
.	.	2A	his	.	.	.
=91	=91	=91	=91	=91	=91	=91
2.AM	A:maj	2.A	heels.	E	103.168	.
=92	=92	=92	=92	=92	=92	=92
2.AM	A:maj	2.r	.	.	104.248	.
=93	=93	=93	=93	=93	=93	=93
2.GM	G:maj	4r	.	.	105.328	newline
.	.	4r	.	.	.	.
.	.	8r	.	.	.	.
.	.	8D	He	.	.	.
=94	=94	=94	=94	=94	=94	=94
2.GM	G:maj	4B	let	.	106.42	.
.	.	4B	go	.	.	.
.	.	8~g	a	.	.	.
.	.	[8A	laugh,	.	.	.
=95	=95	=95	=95	=95	=95	=95
2.DM	D:maj	2A_	_	.	107.513	.
.	.	8A]	_	.	.	.
.	.	8E	he	.	.	.
=96	=96	=96	=96	=96	=96	=96
2.F#M	F#:maj	4F#	let	.	108.606	.
.	.	4F#	go	.	.	.
.	.	8E	a	.	.	.
.	.	[8D	laugh	.	.	.
=97	=97	=97	=97	=97	=97	=97
2.Bm	B:min	2D]	.	.	109.698	newline
.	.	4r	.	.	.	.
=98	=98	=98	=98	=98	=98	=98
2.Bm	B:min/b7	2.r	.	.	110.792	.
=99	=99	=99	=99	=99	=99	=99
2.EMm	E:9/3	8.r	.	.	111.886	.
.	.	8.r	.	.	.	.
.	.	16.r	.	.	.	.
.	.	8.F#	shook	.	.	.
.	.	[16.F#	back	.	.	.
=100	=100	=100	=100	=100	=100	=100
2.EMm	E:9	16.F#]	_	.	112.98	.
.	.	8.F#	his	.	.	.
.	.	[16.F#	clothes	.	.	.
.	.	8F#]	_	.	.	.
.	.	8E	all	.	.	.
.	.	8D	a-	.	.	.
=101	=101	=101	=101	=101	=101	=101
2.AM	A:maj	2.E	-round.	.	114.073	newline
=102	=102	=102	=102	=102	=102	=102
2.AM	A:maj	2.r	.	.	115.137	.
=103	=103	=103	=103	=103	=103	=103
2.AM	A:maj	2.r	.	.	116.201	.
=104	=104	=104	=104	=104	=104	=104
2.AM	A:maj	2.r	.	.	117.265	.
=105	=105	=105	=105	=105	=105	=105
*>Letter>B	*>Letter>B	*>Letter>B	*>Letter>B	*>Letter>B	*>Letter>B	*>Letter>B
*>Label>Chorus	*>Label>Chorus	*>Label>Chorus	*>Label>Chorus	*>Label>Chorus	*>Label>Chorus	*>Label>Chorus
2.Bm	B:min	2.r	.	.	118.329	newline
=106	=106	=106	=106	=106	=106	=106
2.Bm	B:min	8B	Mis-	.	119.413	.
.	.	8~A	-ter	.	.	.
.	.	8Bq	_	.	.	.
.	.	2c#	Bo-	.	.	.
=107	=107	=107	=107	=107	=107	=107
2.AM	A:maj	8A	-jan	.	120.497	.
.	.	8F#	_	.	.	.
.	.	[2E	gles	.	.	.
=108	=108	=108	=108	=108	=108	=108
2.AM	A:maj	4E]	.	.	121.581	.
.	.	4r	.	.	.	.
.	.	4r	.	.	.	.
=109	=109	=109	=109	=109	=109	=109
2.Bm	B:min	2.r	.	.	122.665	newline
=110	=110	=110	=110	=110	=110	=110
2.Bm	B:min	8B	Mis-	.	123.75	.
.	.	8~A	-ter	.	.	.
.	.	8Bq	_	.	.	.
.	.	2c#	Bo-	.	.	.
=111	=111	=111	=111	=111	=111	=111
2.AM	A:maj	8A	-jan	.	124.836	.
.	.	8F#	_	.	.	.
.	.	2E	gles...	.	.	.
=112	=112	=112	=112	=112	=112	=112
2.AM	A:maj	2.r	.	.	125.922	.
=113	=113	=113	=113	=113	=113	=113
2.Bm	B:min	2.r	.	.	127.008	newline
=114	=114	=114	=114	=114	=114	=114
2.Bm	B:min	8B	Mis-	.	128.078	.
.	.	8~A	-ter	.	.	.
.	.	8Bq	_	.	.	.
.	.	2c#	Bo-	.	.	.
=115	=115	=115	=115	=115	=115	=115
2.AM	A:maj	8A	-jan	.	129.149	.
.	.	8F#	_	.	.	.
.	.	[2E	gles	.	.	.
=116	=116	=116	=116	=116	=116	=116
2.AM	A:maj	4E]	.	.	130.22	.
.	.	4r	.	.	.	.
.	.	4r	.	.	.	.
=117	=117	=117	=117	=117	=117	=117
*>Letter>C	*>Letter>C	*>Letter>C	*>Letter>C	*>Letter>C	*>Letter>C	*>Letter>C
*>Label>Trans	*>Label>Trans	*>Label>Trans	*>Label>Trans	*>Label>Trans	*>Label>Trans	*>Label>Trans
2.DM	D:maj	[2.D	dance	C	131.29	newline
=118	=118	=118	=118	=118	=118	=118
2.DM	D:maj/7	4D]	_	.	132.391	.
.	.	4r	.	.	.	.
.	.	4r	.	.	.	.
=119	=119	=119	=119	=119	=119	=119
2.DM	D:maj/6	2.r	.	.	133.491	.
=120	=120	=120	=120	=120	=120	=120
2.DM	D:maj/5	4r	.	.	134.591	.
.	.	4r	.	.	.	.
.	.	8r	.	.	.	.
.	.	8~AA	He	.	.	.
=121	=121	=121	=121	=121	=121	=121
*>Letter>A	*>Letter>A	*>Letter>A	*>Letter>A	*>Letter>A	*>Letter>A	*>Letter>A
*>Label>Verse	*>Label>Verse	*>Label>Verse	*>Label>Verse	*>Label>Verse	*>Label>Verse	*>Label>Verse
2.DM	D:maj	4F#	danced	.	135.692	newline
.	.	8E	for	.	.	.
.	.	4F#	those	F	.	.
.	.	8E	at	.	.	.
=122	=122	=122	=122	=122	=122	=122
2.DM	D:maj/7	8F#	min-	.	136.805	.
.	.	8E	-strel	.	.	.
.	.	4F#	shows	F	.	.
.	.	8E	and	.	.	.
.	.	[8F#	coun	.	.	.
=123	=123	=123	=123	=123	=123	=123
2.DM	D:maj/6	8F#]	_	.	137.918	.
.	.	8E	ty	.	.	.
.	.	2D	fairs...	.	.	.
=124	=124	=124	=124	=124	=124	=124
2.DM	D:maj/5	2.r	.	.	139.031	.
=125	=125	=125	=125	=125	=125	=125
2.GM	G:maj	4r	.	.	140.144	newline
.	.	4r	.	.	.	.
.	.	8r	.	.	.	.
.	.	8~GG	through-	G	.	.
=126	=126	=126	=126	=126	=126	=126
2.GM	G:maj	2B	-out	.	141.241	.
.	.	8A	the	.	.	.
.	.	[8A	south	G	.	.
=127	=127	=127	=127	=127	=127	=127
2.AM	A:maj	2.A]	_	.	142.338	.
=128	=128	=128	=128	=128	=128	=128
2.AM	A:maj	4r	.	.	143.434	.
.	.	4r	.	.	.	.
.	.	8r	.	.	.	.
.	.	8~AA	He	.	.	.
=129	=129	=129	=129	=129	=129	=129
2.DM	D:maj	8F#	spoke	.	144.531	newline
.	.	8E	with	.	.	.
.	.	4F#	tears	H	.	.
.	.	8E	of	.	.	.
.	.	8F#	fif	.	.	.
=130	=130	=130	=130	=130	=130	=130
2.DM	D:maj/7	8r	.	.	145.638	.
.	.	8E	teen	.	.	.
.	.	4F#	years	H	.	.
.	.	8F#	how	.	.	.
.	.	8E	his	.	.	.
=131	=131	=131	=131	=131	=131	=131
2.DM	D:maj/6	4F#	dog	.	146.745	.
.	.	8E	and	.	.	.
.	.	4.D	him...	.	.	.
=132	=132	=132	=132	=132	=132	=132
2.DM	D:maj/5	2.r	.	.	147.851	.
=133	=133	=133	=133	=133	=133	=133
2.GM	G:maj	4r	.	.	148.958	newline
.	.	4r	.	.	.	.
.	.	8r	.	.	.	.
.	.	8~GG	they	.	.	.
=134	=134	=134	=134	=134	=134	=134
2.GM	G:maj	4B	tra-	.	150.044	.
.	.	4B	-velled	.	.	.
.	.	8A	a-	.	.	.
.	.	[8A	-bout	G	.	.
=135	=135	=135	=135	=135	=135	=135
2.AM	A:maj	2.A]	.	.	151.13	.
=136	=136	=136	=136	=136	=136	=136
2.AM	A:maj	2.r	.	.	152.216	.
=137	=137	=137	=137	=137	=137	=137
2.GM	G:maj	4r	.	.	153.302	newline
.	.	4r	.	.	.	.
.	.	8r	.	.	.	.
.	.	8~GG	His	.	.	.
=138	=138	=138	=138	=138	=138	=138
2.GM	G:maj	4B	dog	.	154.4	.
.	.	4B	up	.	.	.
.	.	8c#	and	.	.	.
.	.	[8A	died,	.	.	.
=139	=139	=139	=139	=139	=139	=139
2.DM	D:maj	2.A_	_	.	155.497	.
=140	=140	=140	=140	=140	=140	=140
2.F#M	F#:maj	8A]	_	.	156.595	.
.	.	8F	he	.	.	.
.	.	8F#	up	.	.	.
.	.	[8E	and	.	.	.
.	.	4E]	_	.	.	.
=141	=141	=141	=141	=141	=141	=141
2.Bm	B:min	2.D	died.	.	157.693	newline
=142	=142	=142	=142	=142	=142	=142
2.Bm	B:min/b7	2.r	.	.	158.791	.
=143	=143	=143	=143	=143	=143	=143
2.EMm	E:9/3	4r	.	.	159.89	.
.	.	8~GG	Af-	.	.	.
.	.	8~GG	-ter	.	.	.
.	.	8F#	twen-	.	.	.
.	.	8F#	-ty	.	.	.
=144	=144	=144	=144	=144	=144	=144
2.EMm	E:9	4F#	years	.	160.988	.
.	.	4E	he	.	.	.
.	.	8D	still	.	.	.
.	.	[8E	grieves	.	.	.
=145	=145	=145	=145	=145	=145	=145
2.AM	A:maj	2.E]	.	.	162.087	newline
=146	=146	=146	=146	=146	=146	=146
2.AM	A:maj	2.r	.	.	163.164	.
=147	=147	=147	=147	=147	=147	=147
2.AM	A:maj	2.r	.	.	164.242	.
=148	=148	=148	=148	=148	=148	=148
2.AM	A:maj	4r	.	.	165.32	.
.	.	4r	.	.	.	.
.	.	8r	.	.	.	.
.	.	8~AA	He	.	.	.
=149	=149	=149	=149	=149	=149	=149
*>Letter>A	*>Letter>A	*>Letter>A	*>Letter>A	*>Letter>A	*>Letter>A	*>Letter>A
*>Label>Verse	*>Label>Verse	*>Label>Verse	*>Label>Verse	*>Label>Verse	*>Label>Verse	*>Label>Verse
2.DM	D:maj	8F#	said,	.	166.397	newline
.	.	8E	\\\"I	.	.	.
.	.	4F#	dance	C	.	.
.	.	8F#	now	.	.	.
.	.	8E	at	.	.	.
=150	=150	=150	=150	=150	=150	=150
2.DM	D:maj/7	8F#	ev-	.	167.502	.
.	.	8E	-'ry	.	.	.
.	.	4F#	chance	C	.	.
.	.	8E	and	.	.	.
.	.	[8F#	hon	.	.	.
=151	=151	=151	=151	=151	=151	=151
2.DM	D:maj/6	8F#]	_	.	168.608	.
.	.	8E	ky	.	.	.
.	.	2D	tonk...	.	.	.
=152	=152	=152	=152	=152	=152	=152
2.DM	D:maj/5	2.r	.	.	169.713	.
=153	=153	=153	=153	=153	=153	=153
2.GM	G:maj	4r	.	.	170.818	newline
.	.	4r	.	.	.	.
.	.	8r	.	.	.	.
.	.	8~GG	for	.	.	.
=154	=154	=154	=154	=154	=154	=154
2.GM	G:maj	2B	drinks	.	171.895	.
.	.	8A	and	.	.	.
.	.	[8A	tips	H	.	.
=155	=155	=155	=155	=155	=155	=155
2.AM	A:maj	2A]	_	.	172.973	.
.	.	4r	.	.	.	.
=156	=156	=156	=156	=156	=156	=156
2.AM	A:maj	4r	.	.	174.05	.
.	.	4r	.	.	.	.
.	.	8r	.	.	.	.
.	.	8~BB	But	.	.	.
=157	=157	=157	=157	=157	=157	=157
2.DM	D:maj	8F#	most	.	175.128	newline
.	.	8E	the	.	.	.
.	.	4F#	time,	I	.	.
.	.	8E	I	.	.	.
.	.	[8F#	spend	.	.	.
=158	=158	=158	=158	=158	=158	=158
2.DM	D:maj/7	8F#]	_	.	176.237	.
.	.	8E	be-	.	.	.
.	.	4F#	-hind	I	.	.
.	.	8E	these	.	.	.
.	.	[8F#	coun	.	.	.
=159	=159	=159	=159	=159	=159	=159
2.DM	D:maj/6	8F#]	_	.	177.346	.
.	.	8E	ty	.	.	.
.	.	2D	bars...	.	.	.
=160	=160	=160	=160	=160	=160	=160
2.DM	D:maj/5	2.r	.	.	178.455	.
=161	=161	=161	=161	=161	=161	=161
2.GM	G:maj	4r	.	.	179.564	newline
.	.	8r	.	.	.	.
.	.	8~GG	cuz	.	.	.
.	.	8B	I	.	.	.
.	.	8~A	can	.	.	.
=162	=162	=162	=162	=162	=162	=162
2.GM	G:maj	2B	drinks	.	180.64	.
.	.	8A	a	.	.	.
.	.	[8A	bit	H	.	.
=163	=163	=163	=163	=163	=163	=163
2.AM	A:maj	2.A]	.\\\"	.	181.716	.
=164	=164	=164	=164	=164	=164	=164
2.AM	A:maj	2.r	.	.	182.792	.
=165	=165	=165	=165	=165	=165	=165
2.GM	G:maj	4r	.	.	183.868	newline
.	.	4r	.	.	.	.
.	.	8r	.	.	.	.
.	.	8GG	He	.	.	.
=166	=166	=166	=166	=166	=166	=166
2.GM	G:maj	8B	shook	.	184.97	.
.	.	8B	his	.	.	.
.	.	2c#	_	.	.	.
=167	=167	=167	=167	=167	=167	=167
2.DM	D:maj	4A	head,	.	186.072	.
.	.	2F#	_	.	.	.
=168	=168	=168	=168	=168	=168	=168
2.F#M	F#:maj	8.F#	as	.	187.174	.
.	.	8.F#	he	.	.	.
.	.	8.F#	shook	.	.	.
.	.	8.E	his	.	.	.
=169	=169	=169	=169	=169	=169	=169
2.Bm	B:min	2.D	head...	.	188.276	newline
=170	=170	=170	=170	=170	=170	=170
2.Bm	B:min/b7	2.r	.	.	189.342	.
=171	=171	=171	=171	=171	=171	=171
2.EMm	E:9/3	4r	.	.	190.408	.
.	.	8r	.	.	.	.
.	.	8~GG	I	.	.	.
.	.	4F#	heard	.	.	.
=172	=172	=172	=172	=172	=172	=172
2.EMm	E:9	8F#	some-	.	191.475	.
.	.	8D	-one	.	.	.
.	.	2D	ask,	.	.	.
=173	=173	=173	=173	=173	=173	=173
2.AM	A:maj	[2.E	\\\"please	.	192.541	newline
=174	=174	=174	=174	=174	=174	=174
2.AM	A:maj	2E]	...\\\"	.	193.631	.
.	.	4r	.	.	.	.
=175	=175	=175	=175	=175	=175	=175
2.AM	A:maj	2.r	.	.	194.721	.
=176	=176	=176	=176	=176	=176	=176
2.AM	A:maj	2.r	.	.	195.811	.
=177	=177	=177	=177	=177	=177	=177
*>Letter>B	*>Letter>B	*>Letter>B	*>Letter>B	*>Letter>B	*>Letter>B	*>Letter>B
*>Label>Chorus	*>Label>Chorus	*>Label>Chorus	*>Label>Chorus	*>Label>Chorus	*>Label>Chorus	*>Label>Chorus
2.Bm	B:min	2.r	.	.	196.901	newline
=178	=178	=178	=178	=178	=178	=178
2.Bm	B:min	8B	Mis-	.	197.975	.
.	.	8~A	-ter	.	.	.
.	.	8Bq	_	.	.	.
.	.	2c#	Bo-	.	.	.
=179	=179	=179	=179	=179	=179	=179
2.AM	A:maj	8A	-jan	.	199.05	.
.	.	8F#	_	.	.	.
.	.	[2E	gles	.	.	.
=180	=180	=180	=180	=180	=180	=180
2.AM	A:maj	4E]	.	.	200.124	.
.	.	4r	.	.	.	.
.	.	4r	.	.	.	.
=181	=181	=181	=181	=181	=181	=181
2.Bm	B:min	2.r	.	.	201.199	newline
=182	=182	=182	=182	=182	=182	=182
2.Bm	B:min	8B	Mis-	.	202.281	.
.	.	8~A	-ter	.	.	.
.	.	8Bq	_	.	.	.
.	.	2c#	Bo-	.	.	.
=183	=183	=183	=183	=183	=183	=183
2.AM	A:maj	8A	-jan	.	203.363	.
.	.	8F#	_	.	.	.
.	.	[2E	gles...	.	.	.
=184	=184	=184	=184	=184	=184	=184
2.AM	A:maj	4E]	_	.	204.445	.
.	.	4r	.	.	.	.
.	.	4r	.	.	.	.
=185	=185	=185	=185	=185	=185	=185
2.Bm	B:min	2.r	.	.	205.527	newline
=186	=186	=186	=186	=186	=186	=186
2.Bm	B:min	8B	Mis-	.	206.599	.
.	.	8~A	-ter	.	.	.
.	.	8Bq	_	.	.	.
.	.	2c#	Bo-	.	.	.
=187	=187	=187	=187	=187	=187	=187
2.AM	A:maj	8A	-jan	.	207.671	.
.	.	8F#	_	.	.	.
.	.	[2E	gles	.	.	.
=188	=188	=188	=188	=188	=188	=188
2.AM	A:maj	4E]	.	.	208.743	.
.	.	4r	.	.	.	.
.	.	4r	.	.	.	.
=189	=189	=189	=189	=189	=189	=189
*>Letter>C	*>Letter>C	*>Letter>C	*>Letter>C	*>Letter>C	*>Letter>C	*>Letter>C
*>Label>Outro	*>Label>Outro	*>Label>Outro	*>Label>Outro	*>Label>Outro	*>Label>Outro	*>Label>Outro
2.DM	D:maj	[2.D	dance	C	209.815	newline
=190	=190	=190	=190	=190	=190	=190
2.DM	D:maj/7	4D]	_	.	210.907	.
.	.	4r	.	.	.	.
.	.	4r	.	.	.	.
=191	=191	=191	=191	=191	=191	=191
2.DM	D:maj/6	2.r	.	.	211.998	.
=192	=192	=192	=192	=192	=192	=192
2.DM	D:maj/5	2.r	.	.	213.09	.
=193	=193	=193	=193	=193	=193	=193
2.Bm	B:min	2.r	.	.	NA	newline
=194	=194	=194	=194	=194	=194	=194
2.Bm	B:min	8B	Mis-	.	.	.
.	.	8~A	-ter	.	.	.
.	.	8Bq	_	.	.	.
.	.	2c#	Bo-	.	.	.
=195	=195	=195	=195	=195	=195	=195
2.AM	A:maj	8A	-jan	.	.	.
.	.	8F#	_	.	.	.
.	.	2E	gles	.	.	.
=196	=196	=196	=196	=196	=196	=196
2.AM	A:maj	2.r	.	.	.	.
1r;	1r	r;	.	.	.	.
*-	*-	*-	*-	*-	*-	*-
!!!BillboardChartDate: 1968/08/24
!!!BillboardPeak: 77
!!!BillboardWeeksOnChart: 5
!!!COC: Jerry Jeff Walker
!!!ENC: Nathaniel Condit-Schultz
!!!EST: Awating manual error checking and editing.
!!!OTL: Mr. Bojangles
!!!RDF**chordsym: original McGill chord annotation + (implied pitch class set, with bass pitch in first position)
!!!RDF**harmony: **recip + pitch class of root + harmonic quality
!!!RDF**leadinstrument: original McGill primary instrumentation annotation
!!!RDF**phrase: newline = linebreak in original McGill transcription
!!!RDF**timestamp: McGill audio timestamp in seconds
!!!RDT: 2017/01/12/
!!!SampleActualRank: 79
!!!SampleID#: 0294
!!!SampleTargetRank: 78
!!!MBID: bf27f431-071b-4499-8266-03718ef9d183
